!!!OTL: Die Nonne
!!!OTL-incipit:Ich stand auf hohem Berge,
!!!ARE: Europa, Mitteleuropa, Deutschland (BRD), Nordrhein - Westfalen, Meurs
!!!YOR: 8, S. 32
!!    1838 aufgezeichnet
!!!SCT: Q0155C
!!!YEM: Copyright 1995, estate of Helmut Schaffrath.
**kern	**text
*ICvox	*
*M2/4	*
*k[b-]	*
*F:	*
!LO:TX:a:t=langsam	!
{(16fL	Ich
16aJ)	.
=1	=1
8.ccL	stand
16ffJ	auf
(16ccL	ho-
16a)	.
(16b-	-hem
16gJ)	.
=2	=2
4a	Ber-
8g}	-ge,
{16.gL	schaut
32b-J	hin-
=3	=3
8aL	-ab
(16/a	in's
16ccJ)	.
8bnL	tie-
(16b	-fe
16ddJ)	.
=4	=4
4cc	Thal;
8r}	.
{8cc	da
=5	=5
8ffL	sah
16ff	ich
16ffJ	ein
(16eeL	Schiff-
16dd)	.
8ccJ	-lein
=6	=6
4dd	sei-
8cc	-len,
16r	.
16cc	.
=7	=7
(8.ccL	sei-
16b-J)	.
8a}	-len,
{8cc	wo-
=8	=8
8ddL^	-rin
(16cc	drei
16b-J)	.
8aL	Rei-
8gJ	-ter
=9	=9
4f	war'n.
8r}	.
==	==
!!!AGN: Ballade, Standesunterschied, vergebliche Werbung, Liebe, Klage
!! Anhaengsel an der dritten Zeile.
!!!ONB: ESAC (Essen Associative Code) Database: BALLADE
!!!AMT: simple duple
!!!AIN: vox
!!!EED: Helmut Schaffrath
!!!EEV: 1.0
!!@@COMMENT:"Mitgeteilt von W. Greef in Meurs, 4. Nov. 1838 (DVa = E 460)"
!!@@END:
!!!source: Deutsche Volkslieder mit ihren Melodien. Herausgegeben vom Deutschen Volksliedarchiv. Achter Teil. Freiburg/Breisgau 1988.
!!!page: 32
!!!ENC: Anna Maria Matuszewska
!!!EEV: 2025/03/10
*-	*-
